source/img/icon/icon-mobile-white.svg

<svg width="13" height="22" viewBox="0 0 13 22" fill="none" xmlns="http://www.w3.org/2000/svg">
<path d="M10.8573 0H1.60098C0.715108 0 0 0.718315 0 1.60258V20.399C0 21.2825 0.715108 22 1.60098 22H10.8573C11.7416 22 12.4583 21.2825 12.4583 20.399V1.60258C12.4583 0.718315 11.7416 0 10.8573 0ZM3.94512 0.973253H8.51476C8.6302 0.973253 8.724 1.14562 8.724 1.35887C8.724 1.57212 8.6302 1.74528 8.51476 1.74528H3.94512C3.82888 1.74528 3.73668 1.57212 3.73668 1.35887C3.73668 1.14562 3.82888 0.973253 3.94512 0.973253ZM6.22994 20.4183C5.66635 20.4183 5.20778 19.9597 5.20778 19.3953C5.20778 18.8309 5.66635 18.374 6.22994 18.374C6.79192 18.374 7.25049 18.8309 7.25049 19.3953C7.25049 19.9597 6.79192 20.4183 6.22994 20.4183ZM11.2589 16.9157H1.20013V2.7041H11.2589V16.9157Z" fill="white"/>
</svg>

<svg width="13" height="22" fill="none" xmlns="http://www.w3.org/2000/svg"><path d="M10.857 0H1.601C.715 0 0 .718 0 1.603v18.796A1.6 1.6 0 0 0 1.601 22h9.256c.885 0 1.601-.718 1.601-1.601V1.603c0-.885-.716-1.603-1.6-1.603zM3.945.973h4.57c.115 0 .209.173.209.386 0 .213-.094.386-.21.386H3.946c-.116 0-.208-.173-.208-.386 0-.213.092-.386.208-.386zM6.23 20.418a1.022 1.022 0 1 1 0-2.044 1.022 1.022 0 0 1 0 2.044zm5.029-3.502H1.2V2.704h10.06v14.212z" fill="#fff"/></svg>
